Flat-Remix-Dark/apps/scalable/citra.svg

<svg xmlns="http://www.w3.org/2000/svg" xmlns:xlink="http://www.w3.org/1999/xlink" width="384pt" height="384pt" version="1.1" viewBox="0 0 384 384"> <defs> <filter id="alpha" width="100%" height="100%" x="0%" y="0%" filterUnits="objectBoundingBox"> <feColorMatrix in="SourceGraphic" type="matrix" values="0 0 0 0 1 0 0 0 0 1 0 0 0 0 1 0 0 0 1 0"/> </filter> <mask id="mask0"> <g filter="url(#alpha)"> <rect width="384" height="384" x="0" y="0" style="fill:rgb(0%,0%,0%);fill-opacity:0.2"/> </g> </mask> <clipPath id="clip1"> <rect width="384" height="384" x="0" y="0"/> </clipPath> <g id="surface5" clip-path="url(#clip1)"> <path style="fill:rgb(0%,0%,0%)" d="M 192 30 C 99.214844 30 24 105.214844 24 198 C 24 290.785156 99.214844 366 192 366 C 284.785156 366 360 290.785156 360 198 C 360 105.214844 284.785156 30 192 30 Z M 192 30"/> </g> <mask id="mask1"> <g filter="url(#alpha)"> <rect width="384" height="384" x="0" y="0" style="fill:rgb(0%,0%,0%);fill-opacity:0.2"/> </g> </mask> <clipPath id="clip2"> <rect width="384" height="384" x="0" y="0"/> </clipPath> <g id="surface8" clip-path="url(#clip2)"> <path style="fill:rgb(0%,0%,0%)" d="M 336 198 C 336 277.527344 271.527344 342 192 342 C 112.472656 342 48 277.527344 48 198 C 48 118.472656 112.472656 54 192 54 C 271.527344 54 336 118.472656 336 198 Z M 336 198"/> </g> <mask id="mask2"> <g filter="url(#alpha)"> <rect width="384" height="384" x="0" y="0" style="fill:rgb(0%,0%,0%);fill-opacity:0.2"/> </g> </mask> <clipPath id="clip3"> <rect width="384" height="384" x="0" y="0"/> </clipPath> <g id="surface11" clip-path="url(#clip3)"> <path style="fill:rgb(100.000%,100.000%,100.000%)" d="M 192 24 C 99.214844 24 24 99.214844 24 192 C 24.035156 192.8125 24.078125 193.625 24.128906 194.4375 C 26.066406 103.097656 100.640625 30.050781 192 30 C 283.753906 30.058594 358.488281 103.726562 359.871094 195.46875 C 359.925781 194.3125 359.96875 193.15625 360 192 C 360 99.214844 284.785156 24 192 24 Z M 192 24"/> </g> </defs> <g> <use mask="url(#mask0)" xlink:href="#surface5"/> <path style="fill:rgb(99.215%,59.215%,20.000%)" d="M 192 24 C 99.214844 24 24 99.214844 24 192 C 24 284.785156 99.214844 360 192 360 C 284.785156 360 360 284.785156 360 192 C 360 99.214844 284.785156 24 192 24 Z M 192 24"/> <use mask="url(#mask1)" xlink:href="#surface8"/> <path style="fill:rgb(100.000%,100.000%,100.000%)" d="M 336 192 C 336 271.527344 271.527344 336 192 336 C 112.472656 336 48 271.527344 48 192 C 48 112.472656 112.472656 48 192 48 C 271.527344 48 336 112.472656 336 192 Z M 336 192"/> <path style="fill:rgb(100.000%,78.039%,18.823%)" d="M 191.664062 72 C 176.695312 71.929688 162.738281 74.949219 156 78.234375 C 156.007812 78.285156 155.992188 77.949219 156 78 C 157.144531 80.363281 192 168 192 168 L 228 78 C 220.855469 74.714844 206.617188 72.074219 191.664062 72 Z M 191.664062 72"/> <path style="fill:rgb(84.705%,18.823%,18.823%)" d="M 191.664062 312 C 176.695312 312.070312 162.738281 309.050781 156 305.765625 C 156.007812 305.714844 155.992188 306.050781 156 306 C 157.144531 303.636719 192 216 192 216 L 228 306 C 220.855469 309.285156 206.617188 311.925781 191.664062 312 Z M 191.664062 312"/> <path style="fill:rgb(99.607%,44.313%,44.313%)" d="M 311.996094 191.664062 C 312.070312 176.695312 309.050781 162.738281 305.761719 156 C 305.714844 156.011719 306.046875 155.992188 306 156 C 303.636719 157.144531 216 192 216 192 L 306 228 C 309.285156 220.855469 311.925781 206.617188 311.996094 191.664062 Z M 311.996094 191.664062"/> <path style="fill:rgb(99.215%,59.215%,20.000%)" d="M 72 191.664062 C 71.929688 176.695312 74.945312 162.738281 78.234375 156 C 78.28125 156.011719 77.949219 155.992188 78 156 C 80.359375 157.144531 168 192 168 192 L 78 228 C 74.710938 220.855469 72.070312 206.617188 72 191.664062 Z M 72 191.664062"/> <path style="fill:rgb(98.039%,90.980%,58.431%)" d="M 276.613281 106.910156 C 266.078125 96.277344 254.078125 88.539062 246.988281 86.101562 C 246.960938 86.144531 247.183594 85.894531 247.152344 85.933594 C 246.292969 88.414062 208.96875 175.03125 208.96875 175.03125 L 298.066406 136.847656 C 295.335938 129.46875 287.136719 117.535156 276.613281 106.910156 Z M 276.613281 106.910156"/> <path style="fill:rgb(86.666%,27.843%,27.843%)" d="M 106.910156 276.613281 C 96.273438 266.082031 88.539062 254.078125 86.101562 246.988281 C 86.140625 246.960938 85.890625 247.183594 85.933594 247.15625 C 88.414062 246.292969 175.027344 208.972656 175.027344 208.972656 L 136.84375 298.066406 C 129.46875 295.339844 117.535156 287.136719 106.910156 276.613281 Z M 106.910156 276.613281"/> <path style="fill:rgb(86.666%,27.843%,27.843%)" d="M 277.085938 276.613281 C 287.722656 266.082031 295.457031 254.078125 297.898438 246.988281 C 297.855469 246.960938 298.105469 247.183594 298.0625 247.15625 C 295.585938 246.292969 208.96875 208.972656 208.96875 208.972656 L 247.152344 298.066406 C 254.527344 295.339844 266.464844 287.136719 277.089844 276.613281 Z M 277.085938 276.613281"/> <path style="fill:rgb(100.000%,78.039%,18.823%)" d="M 107.382812 106.910156 C 117.917969 96.277344 129.921875 88.539062 137.011719 86.101562 C 137.039062 86.140625 136.816406 85.894531 136.84375 85.933594 C 137.707031 88.414062 175.027344 175.03125 175.027344 175.03125 L 85.933594 136.847656 C 88.660156 129.46875 96.859375 117.535156 107.382812 106.910156 Z M 107.382812 106.910156"/> <use mask="url(#mask2)" xlink:href="#surface11"/> </g> </svg>

<svg width="512" height="512" version="1.1" viewBox="0 0 384 384" xmlns="http://www.w3.org/2000/svg"><defs><clipPath><rect width="384" height="384"/></clipPath><clipPath><rect width="384" height="384"/></clipPath><clipPath><rect width="384" height="384"/></clipPath></defs><path d="m192 24c-92.785 0-168 75.215-168 168 0 92.785 75.215 168 168 168 92.785 0 168-75.215 168-168 0-92.785-75.215-168-168-168z" fill="#fd9733"/><path d="m336 199.5c0 79.527-64.473 144-144 144s-144-64.473-144-144c0-79.527 64.473-144 144-144s144 64.473 144 144z" opacity=".3"/><path d="m336 192c0 79.527-64.473 144-144 144s-144-64.473-144-144 64.473-144 144-144 144 64.473 144 144z" fill="#fff"/><path d="m191.66 72c-14.969-0.070312-28.926 2.9492-35.664 6.2344 8e-3 0.05078-8e-3 -0.28516 0-0.23438 1.1445 2.3633 36 90 36 90l36-90c-7.1445-3.2852-21.383-5.9258-36.336-6z" fill="#ffc72e"/><path d="m191.66 312c-14.969 0.0703-28.926-2.9492-35.664-6.2344 8e-3 -0.0508-8e-3 0.28516 0 0.23438 1.1445-2.3633 36-90 36-90l36 90c-7.1445 3.2852-21.383 5.9258-36.336 6z" fill="#d72e2e"/><path d="m312 191.66c0.0742-14.969-2.9453-28.926-6.2344-35.664-0.0469 0.0117 0.28515-8e-3 0.23828 0-2.3633 1.1445-90 36-90 36l90 36c3.2852-7.1445 5.9258-21.383 5.9961-36.336z" fill="#fd7070"/><path d="m72 191.66c-0.070312-14.969 2.9453-28.926 6.2344-35.664 0.04687 0.0117-0.28516-8e-3 -0.23438 0 2.3594 1.1445 90 36 90 36l-90 36c-3.2891-7.1445-5.9297-21.383-6-36.336z" fill="#fd9733"/><path d="m276.61 106.91c-10.535-10.633-22.535-18.371-29.625-20.809-0.0273 0.04297 0.19531-0.20703 0.16406-0.16797-0.85937 2.4805-38.184 89.098-38.184 89.098l89.098-38.184c-2.7305-7.3789-10.93-19.312-21.453-29.938z" fill="#fae694"/><path d="m106.91 276.61c-10.637-10.531-18.371-22.535-20.809-29.625 0.03906-0.0273-0.21094 0.19531-0.16797 0.16797 2.4805-0.86328 89.094-38.184 89.094-38.184l-38.184 89.094c-7.375-2.7266-19.309-10.93-29.934-21.453z" fill="#dc4545"/><path d="m277.09 276.61c10.637-10.531 18.371-22.535 20.812-29.625-0.043-0.0273 0.20703 0.19531 0.16406 0.16797-2.4766-0.86328-89.094-38.184-89.094-38.184l38.184 89.094c7.375-2.7266 19.312-10.93 29.938-21.453z" fill="#dc4545"/><path d="m107.38 106.91c10.535-10.633 22.539-18.371 29.629-20.809 0.0273 0.03906-0.19531-0.20703-0.16797-0.16797 0.86328 2.4805 38.184 89.098 38.184 89.098l-89.094-38.184c2.7266-7.3789 10.926-19.312 21.449-29.938z" fill="#ffc72e"/><path transform="scale(.75)" d="m32.062 251c-0.036438 1.6631-0.0625 3.3282-0.0625 5 0 123.71 100.29 224 224 224 123.71 0 224-100.29 224-224 0-1.6718-0.02606-3.3369-0.0625-5-2.66 121.4-101.9 219-223.94 219-122.04 0-221.28-97.597-223.94-219z" opacity=".3" stroke-width="1.3333"/><path transform="scale(.75)" d="m256 32c-123.71 0-224 100.29-224 224 0 1.6718 0.026062 3.3369 0.0625 5 2.66-121.4 101.9-219 223.94-219 122.04 0 221.28 97.597 223.94 219 0.03644-1.6631 0.0625-3.3282 0.0625-5 0-123.71-100.29-224-224-224z" fill="#fff" opacity=".31" stroke-width="1.3333"/></svg>
